tools/download-figma-icons/icons/outlined-large/fruit.svg

<svg width="64" height="64" viewBox="0 0 64 64" fill="none" xmlns="http://www.w3.org/2000/svg">
<path fill-rule="evenodd" clip-rule="evenodd" d="M58.6123 36.0437C57.3173 44.7177 52.7223 55.2797 45.3773 59.3277C41.4883 61.4717 37.1923 61.5357 32.6043 59.5157C32.4123 59.4307 32.2063 59.3887 32.0003 59.3887C31.7943 59.3887 31.5883 59.4307 31.3953 59.5157C26.8093 61.5357 22.5123 61.4717 18.6233 59.3277C11.2773 55.2797 6.68231 44.7177 5.38731 36.0437C4.18631 28.0087 5.77031 21.5957 9.73331 18.4497C14.0973 14.9877 21.6053 15.2217 31.4473 19.1217C31.4519 19.1236 31.4565 19.1239 31.4608 19.1244C31.4631 19.1247 31.4652 19.125 31.4673 19.1257C31.5753 19.1667 31.6863 19.1987 31.8053 19.2147C31.8713 19.2237 31.9353 19.2277 31.9993 19.2277H32.0013H32.0023C32.1913 19.2277 32.3733 19.1897 32.5423 19.1237C32.5438 19.1233 32.5453 19.1232 32.5466 19.1231C32.549 19.123 32.551 19.1229 32.5523 19.1217C42.3973 15.2207 49.9053 14.9887 54.2663 18.4497C58.2293 21.5957 59.8133 28.0087 58.6123 36.0437ZM20.7383 2.99368C23.2703 3.07068 27.7493 4.12368 30.7613 10.0027C28.2293 9.92568 23.7513 8.87268 20.7383 2.99368ZM56.1323 16.1017C51.2113 12.1977 43.7493 11.9677 33.9243 15.4087C34.2763 13.6487 34.8593 11.1987 35.7353 8.81668C36.6463 6.34368 38.8053 2.23868 38.8273 2.19768C39.2133 1.46568 38.9323 0.55868 38.1993 0.17268C37.4683 -0.21132 36.5593 0.0656795 36.1733 0.79968L36.1648 0.815941L36.1648 0.815958C35.9915 1.1466 33.9044 5.12904 32.9373 7.73468C27.4713 -1.76332 18.2673 0.17868 18.1693 0.20168C17.7423 0.29868 17.3793 0.57468 17.1743 0.96168C16.9693 1.34768 16.9443 1.80468 17.1033 2.21068C20.8173 11.6867 27.7273 12.9747 31.2103 12.9747C31.2497 12.9747 31.2865 12.9738 31.3238 12.9729L31.324 12.9729L31.3833 12.9717C31.1373 14.0087 30.9503 14.9357 30.8143 15.6807C20.6283 11.9677 12.9113 12.1017 7.86831 16.1017C3.04231 19.9317 1.05631 27.3617 2.42131 36.4867C3.82531 45.8907 8.93131 57.4117 17.1743 61.9547C21.7553 64.4787 26.7393 64.6667 32.0003 62.5177C34.4203 63.5057 36.7813 63.9987 39.0713 63.9987C41.7603 63.9987 44.3523 63.3167 46.8253 61.9547C55.0683 57.4117 60.1743 45.8907 61.5793 36.4867C62.9433 27.3617 60.9583 19.9317 56.1323 16.1017ZM29.165 32.1492C28.42 31.7832 27.522 32.0872 27.155 32.8292C24.556 38.0872 27.133 42.1412 27.244 42.3122C27.53 42.7512 28.006 42.9882 28.493 42.9882C28.77 42.9882 29.052 42.9112 29.304 42.7502C29.997 42.3062 30.2 41.3802 29.764 40.6832C29.691 40.5692 28.027 37.8362 29.845 34.1582C30.212 33.4162 29.907 32.5162 29.165 32.1492ZM34.155 34.1582C33.788 33.4162 34.093 32.5162 34.835 32.1492C35.577 31.7832 36.477 32.0872 36.845 32.8292C39.444 38.0872 36.867 42.1412 36.756 42.3122C36.469 42.7532 35.988 42.9922 35.499 42.9922C35.218 42.9922 34.934 42.9132 34.68 42.7482C33.989 42.2972 33.793 41.3752 34.237 40.6812C34.324 40.5422 35.964 37.8172 34.155 34.1582Z" fill="black"/>
</svg>

<svg width="64" height="64" viewBox="0 0 64 64" fill="none" xmlns="http://www.w3.org/2000/svg"><path fill-rule="evenodd" clip-rule="evenodd" d="M58.612 36.044c-1.295 8.674-5.89 19.236-13.235 23.284-3.889 2.144-8.185 2.208-12.773.188a1.492 1.492 0 0 0-1.209 0c-4.586 2.02-8.883 1.956-12.772-.188-7.346-4.048-11.94-14.61-13.236-23.284-1.2-8.035.383-14.448 4.346-17.594 4.364-3.462 11.872-3.228 21.714.672.005.002.01.002.014.002l.006.002a1.514 1.514 0 0 0 .532.102h.003c.19 0 .371-.038.54-.104h.005l.005-.002c9.845-3.901 17.353-4.133 21.714-.672 3.963 3.146 5.547 9.559 4.346 17.594ZM20.738 2.994c2.532.077 7.011 1.13 10.023 7.009-2.532-.077-7.01-1.13-10.023-7.01Zm35.394 13.108c-4.92-3.904-12.383-4.134-22.208-.693.352-1.76.935-4.21 1.811-6.592.911-2.473 3.07-6.578 3.092-6.62A1.499 1.499 0 1 0 36.173.8l-.008.016c-.173.33-2.26 4.313-3.228 6.919C27.471-1.763 18.267.179 18.17.202a1.5 1.5 0 0 0-1.066 2.009c3.714 9.476 10.624 10.764 14.107 10.764l.114-.002.06-.001a53.26 53.26 0 0 0-.57 2.709c-10.186-3.713-17.903-3.58-22.946.42-4.826 3.83-6.812 11.26-5.447 20.386 1.404 9.404 6.51 20.925 14.753 25.468 4.581 2.524 9.565 2.712 14.826.563 2.42.988 4.781 1.48 7.071 1.48 2.69 0 5.281-.681 7.754-2.043 8.243-4.543 13.35-16.064 14.754-25.468 1.364-9.125-.62-16.555-5.447-20.385ZM29.165 32.149a1.502 1.502 0 0 0-2.01.68c-2.599 5.258-.022 9.312.089 9.483.286.44.762.676 1.249.676.277 0 .559-.077.811-.238.693-.444.896-1.37.46-2.067-.073-.114-1.737-2.847.081-6.525a1.5 1.5 0 0 0-.68-2.009Zm4.99 2.01a1.5 1.5 0 0 1 2.69-1.33c2.599 5.258.022 9.312-.089 9.483a1.497 1.497 0 0 1-2.076.436 1.501 1.501 0 0 1-.443-2.067c.087-.139 1.727-2.864-.082-6.523Z" fill="currentColor"/></svg>
